svgs/charge_monitor.svg

<?xml version="1.0" encoding="UTF-8" standalone="no"?>
<!-- Created with Inkscape (http://www.inkscape.org/) -->

<svg
   version="1.1"
   id="svg2"
   width="192"
   height="192"
   viewBox="0 0 192 192"
   sodipodi:docname="charge_monitor.png"
   xmlns:inkscape="http://www.inkscape.org/namespaces/inkscape"
   xmlns:sodipodi="http://sodipodi.sourceforge.net/DTD/sodipodi-0.dtd"
   xmlns="http://www.w3.org/2000/svg"
   xmlns:svg="http://www.w3.org/2000/svg">
  <defs
     id="defs6" />
  <sodipodi:namedview
     id="namedview4"
     pagecolor="#ffffff"
     bordercolor="#000000"
     borderopacity="0.25"
     inkscape:showpageshadow="2"
     inkscape:pageopacity="0.0"
     inkscape:pagecheckerboard="0"
     inkscape:deskcolor="#d1d1d1"
     showgrid="false" />
  <g
     inkscape:groupmode="layer"
     inkscape:label="Image"
     id="g8">
    <path
       style="fill:none;fill-opacity:0.841327;stroke:#000000;stroke-width:12;stroke-linecap:round;stroke-linejoin:round;stroke-opacity:1;paint-order:stroke fill markers"
       d="M 87.371501,170.25834 H 113.15116 L 113.56648,145.78366 143.74,115.06082 V 68.432724 c 0,0 -0.30303,-11.162382 -17.44642,-11.162382 V 22 h -5.27445 V 57.270342 H 91.975039"
       id="path340"
       sodipodi:nodetypes="cccccccccc" />
    <path
       style="fill:none;fill-opacity:0.841327;stroke:#000000;stroke-width:12;stroke-linecap:round;stroke-linejoin:round;stroke-opacity:1;paint-order:stroke fill markers"
       d="M 105.9475,170.25834 H 80.16784 L 79.75252,145.78366 49.579,115.06082 V 68.432724 c 0,0 0.30303,-11.162382 17.44642,-11.162382 V 22 h 5.27445 v 35.270342 h 23.19557"
       id="path340-3"
       sodipodi:nodetypes="cccccccccc" />
  </g>
</svg>

<svg width="192" height="192" viewBox="0 0 192 192" xmlns="http://www.w3.org/2000/svg"><path style="fill:none;fill-opacity:.841327;stroke:#000;stroke-width:12;stroke-linecap:round;stroke-linejoin:round;stroke-opacity:1;paint-order:stroke fill markers" d="M87.372 170.258h25.78l.414-24.474 30.174-30.723V68.433s-.303-11.163-17.446-11.163V22h-5.275v35.27H91.975"/><path style="fill:none;fill-opacity:.841327;stroke:#000;stroke-width:12;stroke-linecap:round;stroke-linejoin:round;stroke-opacity:1;paint-order:stroke fill markers" d="M105.948 170.258h-25.78l-.415-24.474-30.174-30.723V68.433s.303-11.163 17.446-11.163V22H72.3v35.27h23.195"/></svg>
